X: 03068
T: PLANXTY JACK Number 2
C: Bob McQuillen 16 Mar 78
B: Bob's Note Book 03 #68
%R: jig
%D:1978
Z: 2020 John Chambers <jc:trillian.mit.edu>
M: 6/8
L: 1/8
K: D
F \
| AFD AFD | dcB AFG | Ade dAF | GAB E2F |\
| AFD AFD | dcB AFA | ded dAF | EFE D2 :|
|: A \
| A2f fgf | edc B2A | A2f fga | agf e2A |\
| A2f fgf | edc B2A | fga agf | edc d2 :|
%%begintext align
%% Dear Jack O'Connor - I figure if I
%% keep after it I _might_ get a good one.
%%endtext

%%sep 1 1 500

%%sep 1 1 500

